assets/linkedin.svg

<svg xmlns="http://www.w3.org/2000/svg" viewBox="-79 81 100 100" enable-background="new -79 81 100 100"><path fill="#006D92" d="M8.9 86.6h-76.7c-3.7 0-6.6 2.9-6.6 6.4v77.1c0 3.6 3 6.5 6.6 6.5h76.7c3.7 0 6.6-2.9 6.6-6.5v-77c0-3.6-2.9-6.5-6.6-6.5zm-56.1 75.3h-13.6v-40.6h13.6v40.6zm-6.8-46.1c-4.7 0-7.6-3.1-7.6-7 0-4 3-7 7.7-7s7.5 3 7.6 7c0 3.8-3 7-7.7 7zm55.8 46.1h-13.6v-21.7c0-5.5-2-9.2-6.9-9.2-3.8 0-6 2.5-7 4.9-.4.9-.5 2.1-.5 3.3v22.7h-13.6s.2-36.8 0-40.6h13.6v5.8c1.8-2.8 5-6.7 12.2-6.7 8.9 0 15.7 5.8 15.7 18.3.1-.1.1 23.2.1 23.2zm-28-34.7l.1-.1-.1.1z"/></svg>

<?xml version="1.0" encoding="utf-8"?>
<!-- Generator: Adobe Illustrator 18.1.1, SVG Export Plug-In . SVG Version: 6.00 Build 0)  -->
<svg version="1.1" id="Icons" xmlns="http://www.w3.org/2000/svg" xmlns:xlink="http://www.w3.org/1999/xlink" x="0px" y="0px"
	 viewBox="-79 81 100 100" enable-background="new -79 81 100 100" xml:space="preserve">
<path id="LinkedIn__x28_alt_x29_" fill="#006D92" d="M8.9,86.6h-76.7c-3.7,0-6.6,2.9-6.6,6.4v77.1c0,3.6,3,6.5,6.6,6.5H8.9
	c3.7,0,6.6-2.9,6.6-6.5V93.1C15.5,89.5,12.6,86.6,8.9,86.6z M-47.2,161.9h-13.6v-40.6h13.6V161.9z M-54,115.8L-54,115.8
	c-4.7,0-7.6-3.1-7.6-7c0-4,3-7,7.7-7c4.7,0,7.5,3,7.6,7C-46.3,112.6-49.3,115.8-54,115.8z M1.8,161.9h-13.6v-21.7
	c0-5.5-2-9.2-6.9-9.2c-3.8,0-6,2.5-7,4.9c-0.4,0.9-0.5,2.1-0.5,3.3v22.7h-13.6c0,0,0.2-36.8,0-40.6h13.6v5.8c1.8-2.8,5-6.7,12.2-6.7
	c8.9,0,15.7,5.8,15.7,18.3C1.8,138.6,1.8,161.9,1.8,161.9z M-26.2,127.2c0,0,0.1-0.1,0.1-0.1L-26.2,127.2L-26.2,127.2z"/>
</svg>
